SVG_Azure_All/API Management External Cache.svg

<?xml version="1.0" encoding="UTF-8" standalone="no"?>
<!-- Generated by Microsoft Visio, SVG Export API Management External Cache.svg Page-1 -->

<svg
   xmlns:dc="http://purl.org/dc/elements/1.1/"
   xmlns:cc="http://creativecommons.org/ns#"
   xmlns:rdf="http://www.w3.org/1999/02/22-rdf-syntax-ns#"
   xmlns:svg="http://www.w3.org/2000/svg"
   xmlns="http://www.w3.org/2000/svg"
   xmlns:sodipodi="http://sodipodi.sourceforge.net/DTD/sodipodi-0.dtd"
   xmlns:inkscape="http://www.inkscape.org/namespaces/inkscape"
   width="0.77538079in"
   height="0.66378891in"
   viewBox="0 0 55.827434 47.792783"
   xml:space="preserve"
   class="st4"
   version="1.1"
   id="svg79"
   sodipodi:docname="API Management External Cache.svg"
   style="font-size:12px;overflow:visible;color-interpolation-filters:sRGB;fill:none;fill-rule:evenodd;stroke-linecap:square;stroke-miterlimit:3"
   inkscape:version="0.92.5 (2060ec1f9f, 2020-04-08)"><metadata
   id="metadata85"><rdf:RDF><cc:Work
       rdf:about=""><dc:format>image/svg+xml</dc:format><dc:type
         rdf:resource="http://purl.org/dc/dcmitype/StillImage" /></cc:Work></rdf:RDF></metadata><defs
   id="defs83" /><sodipodi:namedview
   pagecolor="#ffffff"
   bordercolor="#666666"
   borderopacity="1"
   objecttolerance="10"
   gridtolerance="10"
   guidetolerance="10"
   inkscape:pageopacity="0"
   inkscape:pageshadow="2"
   inkscape:window-width="640"
   inkscape:window-height="480"
   id="namedview81"
   showgrid="false"
   inkscape:zoom="1.878067"
   inkscape:cx="37.220331"
   inkscape:cy="17.21518"
   inkscape:window-x="0"
   inkscape:window-y="0"
   inkscape:window-maximized="0"
   inkscape:current-layer="svg79" />
	<style
   type="text/css"
   id="style2">
	<![CDATA[
		.st1 {fill:#ba141a;stroke:none;stroke-linecap:butt;stroke-width:12.24}
		.st2 {fill:#1e1e1e;fill-opacity:0.25;stroke:none;stroke-linecap:butt;stroke-width:12.24}
		.st3 {fill:#ffffff;stroke:none;stroke-linecap:butt;stroke-width:12.24}
		.st4 {fill:none;fill-rule:evenodd;font-size:12px;overflow:visible;stroke-linecap:square;stroke-miterlimit:3}
	]]>
	</style>

	<g
   id="g77"
   transform="translate(-12.238789,-12.2415)">
		<title
   id="title4">Page-1</title>
		<g
   id="group10282-1"
   transform="translate(11.8076,-34.0157)">
			<title
   id="title6">API Management External Cache</title>
			<g
   id="group10283-2">
				<title
   id="title8">Sheet.10283</title>
				<g
   id="shape10284-3"
   transform="translate(0.334801)">
					<title
   id="title10">Sheet.10284</title>
					<path
   d="M 0.11,82.31 C 0,82.88 0.56,83.56 1.67,84.02 l 22.66,9.43 c 2.01,0.8 5.36,0.8 7.36,0 l 22.66,-9.43 c 1.12,-0.46 1.56,-1.14 1.56,-1.71 v -5.45 c 0.11,0.57 -0.44,1.25 -1.56,1.7 l -22.66,9.43 c -2,0.8 -5.35,0.8 -7.36,0 L 1.67,78.56 C 0.45,78.11 0,77.43 0.22,76.74 Z"
   class="st1"
   id="path12"
   inkscape:connector-curvature="0"
   style="fill:#ba141a;stroke:none;stroke-width:12.23999977;stroke-linecap:butt" />
				</g>
				<g
   id="shape10285-5"
   transform="translate(0,-5.45536)">
					<title
   id="title15">Sheet.10285</title>
					<path
   d="m 54.68,80.95 c 2.01,0.79 2.01,2.27 0,3.07 l -22.65,9.43 c -2.01,0.8 -5.36,0.8 -7.37,0 L 2.01,84.02 C 0,83.22 0,81.74 2.01,80.95 l 22.65,-9.43 c 2.01,-0.8 5.36,-0.8 7.37,0 z"
   class="st1"
   id="path17"
   inkscape:connector-curvature="0"
   style="fill:#ba141a;stroke:none;stroke-width:12.23999977;stroke-linecap:butt" />
				</g>
				<g
   id="shape10286-7"
   transform="translate(0.334801,-9.54687)">
					<title
   id="title20">Sheet.10286</title>
					<path
   d="M 0.11,82.31 C 0,82.88 0.56,83.56 1.67,84.02 l 22.66,9.43 c 2.01,0.8 5.36,0.8 7.36,0 l 22.66,-9.43 c 1.12,-0.46 1.56,-1.14 1.56,-1.71 v -5.45 c 0.11,0.57 -0.44,1.25 -1.56,1.7 l -22.66,9.43 c -2,0.8 -5.35,0.8 -7.36,0 L 1.67,78.56 C 0.45,78.11 0,77.43 0.22,76.74 Z"
   class="st1"
   id="path22"
   inkscape:connector-curvature="0"
   style="fill:#ba141a;stroke:none;stroke-width:12.23999977;stroke-linecap:butt" />
				</g>
				<g
   id="shape10287-9"
   transform="translate(0,-15.1159)">
					<title
   id="title25">Sheet.10287</title>
					<path
   d="m 54.68,80.95 c 2.01,0.79 2.01,2.27 0,3.07 l -22.65,9.43 c -2.01,0.8 -5.36,0.8 -7.37,0 L 2.01,84.13 C 0,83.34 0,81.86 2.01,81.06 l 22.65,-9.43 c 2.01,-0.8 5.36,-0.8 7.37,0 z"
   class="st1"
   id="path27"
   inkscape:connector-curvature="0"
   style="fill:#ba141a;stroke:none;stroke-width:12.23999977;stroke-linecap:butt" />
				</g>
				<g
   id="shape10288-11"
   transform="translate(0.334801,-19.2074)">
					<title
   id="title30">Sheet.10288</title>
					<path
   d="M 0.11,82.31 C 0,82.88 0.56,83.56 1.67,84.02 l 22.66,9.43 c 2.01,0.8 5.36,0.8 7.36,0 l 22.66,-9.43 c 1.12,-0.46 1.56,-1.14 1.56,-1.71 v -5.45 c 0.11,0.57 -0.44,1.25 -1.56,1.7 l -22.66,9.43 c -2,0.8 -5.35,0.8 -7.36,0 L 1.67,78.56 C 0.45,78.11 0,77.43 0.22,76.74 Z"
   class="st1"
   id="path32"
   inkscape:connector-curvature="0"
   style="fill:#ba141a;stroke:none;stroke-width:12.23999977;stroke-linecap:butt" />
				</g>
				<g
   id="shape10289-13"
   transform="translate(0.334801)">
					<title
   id="title35">Sheet.10289</title>
					<path
   d="M 0.11,82.31 C 0,82.88 0.56,83.56 1.67,84.02 l 22.66,9.43 c 2.01,0.8 5.36,0.8 7.36,0 l 22.66,-9.43 c 1.12,-0.46 1.56,-1.14 1.56,-1.71 v -5.45 c 0.11,0.57 -0.44,1.25 -1.56,1.7 l -22.66,9.43 c -2,0.8 -5.35,0.8 -7.36,0 L 1.67,78.56 C 0.45,78.11 0,77.43 0.22,76.74 Z"
   class="st2"
   id="path37"
   inkscape:connector-curvature="0"
   style="fill:#1e1e1e;fill-opacity:0.25;stroke:none;stroke-width:12.23999977;stroke-linecap:butt" />
				</g>
				<g
   id="shape10290-15"
   transform="translate(0.334801,-9.54687)">
					<title
   id="title40">Sheet.10290</title>
					<path
   d="M 0.11,82.31 C 0,82.88 0.56,83.56 1.67,84.02 l 22.66,9.43 c 2.01,0.8 5.36,0.8 7.36,0 l 22.66,-9.43 c 1.12,-0.46 1.56,-1.14 1.56,-1.71 v -5.45 c 0.11,0.57 -0.44,1.25 -1.56,1.7 l -22.66,9.43 c -2,0.8 -5.35,0.8 -7.36,0 L 1.67,78.56 C 0.45,78.11 0,77.43 0.22,76.74 Z"
   class="st2"
   id="path42"
   inkscape:connector-curvature="0"
   style="fill:#1e1e1e;fill-opacity:0.25;stroke:none;stroke-width:12.23999977;stroke-linecap:butt" />
				</g>
				<g
   id="shape10291-17"
   transform="translate(0.334801,-19.2074)">
					<title
   id="title45">Sheet.10291</title>
					<path
   d="M 0.11,82.31 C 0,82.88 0.56,83.56 1.67,84.02 l 22.66,9.43 c 2.01,0.8 5.36,0.8 7.36,0 l 22.66,-9.43 c 1.12,-0.46 1.56,-1.14 1.56,-1.71 v -5.45 c 0.11,0.57 -0.44,1.25 -1.56,1.7 l -22.66,9.43 c -2,0.8 -5.35,0.8 -7.36,0 L 1.67,78.56 C 0.45,78.11 0,77.43 0.22,76.74 Z"
   class="st2"
   id="path47"
   inkscape:connector-curvature="0"
   style="fill:#1e1e1e;fill-opacity:0.25;stroke:none;stroke-width:12.23999977;stroke-linecap:butt" />
				</g>
				<g
   id="shape10292-19"
   transform="translate(0,-24.6628)">
					<title
   id="title50">Sheet.10292</title>
					<path
   d="m 54.68,80.95 c 2.01,0.79 2.01,2.27 0,3.07 l -22.65,9.43 c -2.01,0.8 -5.36,0.8 -7.37,0 L 2.01,84.02 C 0,83.22 0,81.74 2.01,80.95 l 22.65,-9.43 c 2.01,-0.8 5.36,-0.8 7.37,0 z"
   class="st1"
   id="path52"
   inkscape:connector-curvature="0"
   style="fill:#ba141a;stroke:none;stroke-width:12.23999977;stroke-linecap:butt" />
				</g>
				<g
   id="shape10293-21"
   transform="translate(9.37442,-27.1631)">
					<title
   id="title55">Sheet.10293</title>
					<path
   d="m 11.94,86.74 c -2.57,1.14 -6.81,1.14 -9.37,0 -2.57,-1.13 -2.57,-3.06 0,-4.2 2.56,-1.14 6.8,-1.14 9.37,0 2.57,1.14 2.68,3.07 0,4.2 z m -1.67,3.07 13.28,-1.59 -3.57,6.03 z"
   class="st3"
   id="path57"
   inkscape:connector-curvature="0"
   style="fill:#ffffff;stroke:none;stroke-width:12.23999977;stroke-linecap:butt" />
				</g>
				<g
   id="shape10294-23"
   transform="translate(32.4757,-33.0731)">
					<title
   id="title60">Sheet.10294</title>
					<path
   d="M 7.92,94.25 0,90.61 l 7.92,-3.64 7.93,3.64 z"
   class="st2"
   id="path62"
   inkscape:connector-curvature="0"
   style="fill:#1e1e1e;fill-opacity:0.25;stroke:none;stroke-width:12.23999977;stroke-linecap:butt" />
				</g>
				<g
   id="shape10295-25"
   transform="translate(32.4757,-33.0731)">
					<title
   id="title65">Sheet.10295</title>
					<path
   d="M 7.92,94.25 0,90.61 7.92,86.97 Z"
   class="st2"
   id="path67"
   inkscape:connector-curvature="0"
   style="fill:#1e1e1e;fill-opacity:0.25;stroke:none;stroke-width:12.23999977;stroke-linecap:butt" />
				</g>
				<g
   id="shape10296-27"
   transform="translate(20.646,-38.7558)">
					<title
   id="title70">Sheet.10296</title>
					<path
   d="M 5.13,91.86 0,91.4 4.58,90.27 4.02,87.88 l 3.9,1.59 4.8,-1.02 -2.23,2.27 3.57,1.71 -5.24,-0.23 -2.57,2.05 z"
   class="st3"
   id="path72"
   inkscape:connector-curvature="0"
   style="fill:#ffffff;stroke:none;stroke-width:12.23999977;stroke-linecap:butt" />
				</g>
			</g>
		</g>
	</g>
</svg>

<?xml version="1.0" encoding="UTF-8" standalone="no"?>
<!DOCTYPE svg PUBLIC "-//W3C//DTD SVG 1.1//EN" "http://www.w3.org/Graphics/SVG/1.1/DTD/svg11.dtd">
<!-- Generated by Microsoft Visio, SVG Export API Management External Cache.svg Page-1 -->
<svg xmlns="http://www.w3.org/2000/svg" xmlns:xlink="http://www.w3.org/1999/xlink" xmlns:ev="http://www.w3.org/2001/xml-events"
		width="1.11539in" height="1.30897in" viewBox="0 0 80.3081 94.2458" xml:space="preserve" color-interpolation-filters="sRGB"
		class="st4">
	<style type="text/css">
	<![CDATA[
		.st1 {fill:#ba141a;stroke:none;stroke-linecap:butt;stroke-width:12.24}
		.st2 {fill:#1e1e1e;fill-opacity:0.25;stroke:none;stroke-linecap:butt;stroke-width:12.24}
		.st3 {fill:#ffffff;stroke:none;stroke-linecap:butt;stroke-width:12.24}
		.st4 {fill:none;fill-rule:evenodd;font-size:12px;overflow:visible;stroke-linecap:square;stroke-miterlimit:3}
	]]>
	</style>

	<g>
		<title>Page-1</title>
		<g id="group10051-1" transform="translate(11.8076,-34.0157)">
			<title>API Management External Cache</title>
			<g id="group10052-2">
				<title>Sheet.10052</title>
				<g id="shape10053-3" transform="translate(0.334801,-2.41585E-13)">
					<title>Sheet.10053</title>
					<path d="M0.11 82.31 C0 82.88 0.56 83.56 1.67 84.02 L24.33 93.45 C26.34 94.25 29.69 94.25 31.69 93.45 L54.35
								 84.02 C55.47 83.56 55.91 82.88 55.91 82.31 L55.91 76.86 C56.02 77.43 55.47 78.11 54.35 78.56 L31.69
								 87.99 C29.69 88.79 26.34 88.79 24.33 87.99 L1.67 78.56 C0.45 78.11 0 77.43 0.22 76.74 L0.11 82.31
								 Z" class="st1"/>
				</g>
				<g id="shape10054-5" transform="translate(0,-5.45536)">
					<title>Sheet.10054</title>
					<path d="M54.68 80.95 C56.69 81.74 56.69 83.22 54.68 84.02 L32.03 93.45 C30.02 94.25 26.67 94.25 24.66 93.45
								 L2.01 84.02 C0 83.22 0 81.74 2.01 80.95 L24.66 71.52 C26.67 70.72 30.02 70.72 32.03 71.52 L54.68
								 80.95 Z" class="st1"/>
				</g>
				<g id="shape10055-7" transform="translate(0.334801,-9.54687)">
					<title>Sheet.10055</title>
					<path d="M0.11 82.31 C0 82.88 0.56 83.56 1.67 84.02 L24.33 93.45 C26.34 94.25 29.69 94.25 31.69 93.45 L54.35
								 84.02 C55.47 83.56 55.91 82.88 55.91 82.31 L55.91 76.86 C56.02 77.43 55.47 78.11 54.35 78.56 L31.69
								 87.99 C29.69 88.79 26.34 88.79 24.33 87.99 L1.67 78.56 C0.45 78.11 0 77.43 0.22 76.74 L0.11 82.31
								 Z" class="st1"/>
				</g>
				<g id="shape10056-9" transform="translate(0,-15.1159)">
					<title>Sheet.10056</title>
					<path d="M54.68 80.95 C56.69 81.74 56.69 83.22 54.68 84.02 L32.03 93.45 C30.02 94.25 26.67 94.25 24.66 93.45
								 L2.01 84.13 C0 83.34 0 81.86 2.01 81.06 L24.66 71.63 C26.67 70.83 30.02 70.83 32.03 71.63 L54.68
								 80.95 Z" class="st1"/>
				</g>
				<g id="shape10057-11" transform="translate(0.334801,-19.2074)">
					<title>Sheet.10057</title>
					<path d="M0.11 82.31 C0 82.88 0.56 83.56 1.67 84.02 L24.33 93.45 C26.34 94.25 29.69 94.25 31.69 93.45 L54.35
								 84.02 C55.47 83.56 55.91 82.88 55.91 82.31 L55.91 76.86 C56.02 77.43 55.47 78.11 54.35 78.56 L31.69
								 87.99 C29.69 88.79 26.34 88.79 24.33 87.99 L1.67 78.56 C0.45 78.11 0 77.43 0.22 76.74 L0.11 82.31
								 Z" class="st1"/>
				</g>
				<g id="shape10058-13" transform="translate(0.334801,-2.41585E-13)">
					<title>Sheet.10058</title>
					<path d="M0.11 82.31 C0 82.88 0.56 83.56 1.67 84.02 L24.33 93.45 C26.34 94.25 29.69 94.25 31.69 93.45 L54.35
								 84.02 C55.47 83.56 55.91 82.88 55.91 82.31 L55.91 76.86 C56.02 77.43 55.47 78.11 54.35 78.56 L31.69
								 87.99 C29.69 88.79 26.34 88.79 24.33 87.99 L1.67 78.56 C0.45 78.11 0 77.43 0.22 76.74 L0.11 82.31
								 Z" class="st2"/>
				</g>
				<g id="shape10059-15" transform="translate(0.334801,-9.54687)">
					<title>Sheet.10059</title>
					<path d="M0.11 82.31 C0 82.88 0.56 83.56 1.67 84.02 L24.33 93.45 C26.34 94.25 29.69 94.25 31.69 93.45 L54.35
								 84.02 C55.47 83.56 55.91 82.88 55.91 82.31 L55.91 76.86 C56.02 77.43 55.47 78.11 54.35 78.56 L31.69
								 87.99 C29.69 88.79 26.34 88.79 24.33 87.99 L1.67 78.56 C0.45 78.11 0 77.43 0.22 76.74 L0.11 82.31
								 Z" class="st2"/>
				</g>
				<g id="shape10060-17" transform="translate(0.334801,-19.2074)">
					<title>Sheet.10060</title>
					<path d="M0.11 82.31 C0 82.88 0.56 83.56 1.67 84.02 L24.33 93.45 C26.34 94.25 29.69 94.25 31.69 93.45 L54.35
								 84.02 C55.47 83.56 55.91 82.88 55.91 82.31 L55.91 76.86 C56.02 77.43 55.47 78.11 54.35 78.56 L31.69
								 87.99 C29.69 88.79 26.34 88.79 24.33 87.99 L1.67 78.56 C0.45 78.11 0 77.43 0.22 76.74 L0.11 82.31
								 Z" class="st2"/>
				</g>
				<g id="shape10061-19" transform="translate(0,-24.6628)">
					<title>Sheet.10061</title>
					<path d="M54.68 80.95 C56.69 81.74 56.69 83.22 54.68 84.02 L32.03 93.45 C30.02 94.25 26.67 94.25 24.66 93.45
								 L2.01 84.02 C0 83.22 0 81.74 2.01 80.95 L24.66 71.52 C26.67 70.72 30.02 70.72 32.03 71.52 L54.68
								 80.95 Z" class="st1"/>
				</g>
				<g id="shape10062-21" transform="translate(9.37442,-27.1631)">
					<title>Sheet.10062</title>
					<path d="M11.94 86.74 C9.37 87.88 5.13 87.88 2.57 86.74 C0 85.61 0 83.68 2.57 82.54 C5.13 81.4 9.37 81.4 11.94
								 82.54 C14.51 83.68 14.62 85.61 11.94 86.74 ZM10.27 89.81 L23.55 88.22 L19.98 94.25 L10.27 89.81
								 Z" class="st3"/>
				</g>
				<g id="shape10063-23" transform="translate(32.4757,-33.0731)">
					<title>Sheet.10063</title>
					<path d="M7.92 94.25 L0 90.61 L7.92 86.97 L15.85 90.61 L7.92 94.25 Z" class="st2"/>
				</g>
				<g id="shape10064-25" transform="translate(32.4757,-33.0731)">
					<title>Sheet.10064</title>
					<path d="M7.92 94.25 L0 90.61 L7.92 86.97 L7.92 94.25 Z" class="st2"/>
				</g>
				<g id="shape10065-27" transform="translate(20.646,-38.7558)">
					<title>Sheet.10065</title>
					<path d="M5.13 91.86 L0 91.4 L4.58 90.27 L4.02 87.88 L7.92 89.47 L12.72 88.45 L10.49 90.72 L14.06 92.43 L8.82
								 92.2 L6.25 94.25 L5.13 91.86 Z" class="st3"/>
				</g>
			</g>
		</g>
	</g>
</svg>
